X: 203
T: VARIOUS: Youghal Harbour [Set Dance]
C: C: Trad.; S: Various
C: Set Leaders: Alexey, Sophie, Anton
Z: [Unedited]; gian marco at The Session
N: https://thesession.org/members/26966/sets/99667
R: Set Dance
M: 4/4
L: 1/8
Q: 1/2=82
K: Gmaj
|:e>f|g>f e>d B2 A>B|(3dBA B>A G>E D>E|G2 G>A B>d e>f|
g>f e>d B2 A>B|(3dBA B>A G2 G2|G4 G2:||
|:G>A|B>d e>f g2 f>g|a>g f>g e2e>g|f>e d>B d>B A>B|d2 d>e d2 (3def|
g>f g>a g>f e>d|(3BdB A>G E>D B,>D|G2 G>A B>A B>d|e>d e>f g2 e>f|
g>f e>d B2 A>B|(3dBA B>A G>E D>E|G2 G>A B>d e>f|
g>f e>d B2 A>B|(3dBA B>A G2 G2|G4 G2:||

